src/plane-dark/emblems/emblems.svg

<?xml version="1.0" encoding="UTF-8" standalone="no"?>
<svg
   xmlns:osb="http://www.openswatchbook.org/uri/2009/osb"
   xmlns:dc="http://purl.org/dc/elements/1.1/"
   xmlns:cc="http://creativecommons.org/ns#"
   xmlns:rdf="http://www.w3.org/1999/02/22-rdf-syntax-ns#"
   xmlns:svg="http://www.w3.org/2000/svg"
   xmlns="http://www.w3.org/2000/svg"
   xmlns:sodipodi="http://sodipodi.sourceforge.net/DTD/sodipodi-0.dtd"
   xmlns:inkscape="http://www.inkscape.org/namespaces/inkscape"
   height="511"
   viewBox="0 0 511 511"
   width="511"
   id="svg2"
   version="1.1"
   inkscape:version="0.92.2 5c3e80d, 2017-08-06"
   sodipodi:docname="emblems.svg"
   style="enable-background:new">
  <title
     id="title4675">Template icons dark</title>
  <metadata
     id="metadata24">
    <rdf:RDF>
      <cc:Work
         rdf:about="">
        <dc:format>image/svg+xml</dc:format>
        <dc:type
           rdf:resource="http://purl.org/dc/dcmitype/StillImage" />
        <dc:title>Template icons dark</dc:title>
        <dc:date>17/05/13</dc:date>
        <dc:creator>
          <cc:Agent>
            <dc:title>wfpaisa</dc:title>
          </cc:Agent>
        </dc:creator>
        <dc:rights>
          <cc:Agent>
            <dc:title>License: GPLv3</dc:title>
          </cc:Agent>
        </dc:rights>
        <dc:language>es-en</dc:language>
        <dc:subject>
          <rdf:Bag>
            <rdf:li>plane-icon-theme</rdf:li>
          </rdf:Bag>
        </dc:subject>
        <dc:description>Template for create set icons</dc:description>
        <cc:license
           rdf:resource="https://www.gnu.org/licenses/gpl-3.0.en.html" />
      </cc:Work>
    </rdf:RDF>
  </metadata>
  <defs
     id="defs22">
    <linearGradient
       id="folder_icono_fondo-1"
       osb:paint="solid">
      <stop
         style="stop-color:#49566c;stop-opacity:0.28491619;"
         offset="0"
         id="stop8478" />
    </linearGradient>
  </defs>
  <sodipodi:namedview
     pagecolor="#383c4a"
     bordercolor="#ffffff"
     borderopacity="0.62745098"
     objecttolerance="4"
     gridtolerance="10"
     guidetolerance="4"
     inkscape:pageopacity="0"
     inkscape:pageshadow="2"
     inkscape:window-width="640"
     inkscape:window-height="480"
     id="namedview20"
     showgrid="true"
     inkscape:zoom="7.8580482"
     inkscape:cx="2.3788631"
     inkscape:cy="474.60845"
     inkscape:current-layer="g4101"
     inkscape:snap-smooth-nodes="true"
     showguides="true"
     borderlayer="true"
     inkscape:showpageshadow="false"
     inkscape:guide-bbox="true"
     guidecolor="#bd4fff"
     guideopacity="0.78431373"
     inkscape:snap-nodes="true"
     inkscape:lockguides="false"
     fit-margin-top="0"
     fit-margin-left="0"
     fit-margin-right="0"
     fit-margin-bottom="0"
     guidehicolor="#ff0101"
     guidehiopacity="0.78431373"
     inkscape:snap-page="true"
     inkscape:snap-global="true">
    <inkscape:grid
       type="xygrid"
       id="grid4171"
       empspacing="17"
       dotted="false"
       originx="2.7755576e-17"
       originy="1e-05"
       spacingx="1"
       spacingy="1"
       color="#000000"
       opacity="0.09803922"
       empcolor="#ff3fd7"
       empopacity="0.25098039"
       visible="true" />
    <inkscape:grid
       type="xygrid"
       id="grid7715"
       dotted="false"
       color="#3f3fff"
       opacity="0"
       empcolor="#ff3fd7"
       empopacity="0.25098039"
       empspacing="17"
       originx="1"
       originy="1" />
  </sodipodi:namedview>
  <g
     inkscape:groupmode="layer"
     id="layer2"
     inkscape:label="Symbolic"
     transform="translate(0,463)"
     style="display:inline">
    <text
       xml:space="preserve"
       style="font-size:8.55383492px;line-height:1000%;font-family:sans-serif;letter-spacing:0px;word-spacing:0px;fill:#ffffff;fill-opacity:1;stroke:none;stroke-width:0.53461468px;stroke-linecap:butt;stroke-linejoin:miter;stroke-opacity:1"
       x="2.7790427"
       y="-451.4892"
       id="text7769"><tspan
         sodipodi:role="line"
         id="tspan7767"
         x="2.7790427"
         y="-451.4892"
         style="font-size:5.33333349px;fill:#ffffff;fill-opacity:1;stroke:none;stroke-width:0.53461468px">Emblems</tspan></text>
  </g>
  <g
     inkscape:groupmode="layer"
     id="g4107"
     inkscape:label="emblem-readonly_8"
     style="display:inline"
     transform="translate(0,463)">
    <g
       id="g4101"
       inkscape:label="frame"
       style="display:none"
       inkscape:groupmode="layer">
      <rect
         inkscape:label="frame_8"
         y="-437"
         x="18"
         height="7.9999995"
         width="7.9999995"
         id="rect4099"
         style="color:#000000;clip-rule:nonzero;display:block;overflow:visible;visibility:visible;opacity:1;isolation:auto;mix-blend-mode:normal;color-interpolation:sRGB;color-interpolation-filters:linearRGB;solid-color:#000000;solid-opacity:1;vector-effect:none;fill:#000000;fill-opacity:1;fill-rule:nonzero;stroke:#ff24f7;stroke-width:0;stroke-linecap:square;stroke-linejoin:miter;stroke-miterlimit:4;stroke-dasharray:none;stroke-dashoffset:0;stroke-opacity:0.99481865;marker:none;marker-start:none;marker-mid:none;marker-end:none;paint-order:normal;color-rendering:auto;image-rendering:auto;shape-rendering:auto;text-rendering:auto;enable-background:accumulate" />
    </g>
    <g
       style="display:inline"
       inkscape:groupmode="layer"
       id="g4105"
       inkscape:label="icon">
      <path
         style="color:#000000;clip-rule:nonzero;display:block;overflow:visible;visibility:visible;opacity:1;isolation:auto;mix-blend-mode:normal;color-interpolation:sRGB;color-interpolation-filters:linearRGB;solid-color:#000000;solid-opacity:1;vector-effect:none;fill:#ffd1bd;fill-opacity:1;fill-rule:nonzero;stroke:none;stroke-width:0.28982982;stroke-linecap:butt;stroke-linejoin:miter;stroke-miterlimit:4;stroke-dasharray:none;stroke-dashoffset:0;stroke-opacity:1;marker:none;marker-start:none;marker-mid:none;marker-end:none;paint-order:fill markers stroke;color-rendering:auto;image-rendering:auto;shape-rendering:auto;text-rendering:auto;enable-background:accumulate"
         d="m 22,-434 v 2 h -1 v 3 l 5,-10e-6 v -3 H 25 V -434 Z m 1,1 1,-10e-6 V -432 h -1 z"
         id="rect4109"
         inkscape:connector-curvature="0"
         sodipodi:nodetypes="cccccccccccccc" />
      <path
         style="color:#000000;clip-rule:nonzero;display:block;overflow:visible;visibility:visible;opacity:1;isolation:auto;mix-blend-mode:normal;color-interpolation:sRGB;color-interpolation-filters:linearRGB;solid-color:#000000;solid-opacity:1;vector-effect:none;fill:#383c4a;fill-opacity:0.97916667;fill-rule:nonzero;stroke:none;stroke-width:0.32300001;stroke-linecap:butt;stroke-linejoin:miter;stroke-miterlimit:4;stroke-dasharray:none;stroke-dashoffset:0;stroke-opacity:1;marker:none;marker-start:none;marker-mid:none;marker-end:none;paint-order:fill markers stroke;color-rendering:auto;image-rendering:auto;shape-rendering:auto;text-rendering:auto;enable-background:accumulate"
         d="m 21,28 v 1 1 h -1 v 1 3 h 1 v -3 h 1 v -1 -1 h 3 v 2 h 1 v -3 h -1 z m 5,3 v 3 h 1 v -3 z m -3,-1 v 1 h 1 v -1 z"
         transform="translate(0,-463)"
         id="rect3996"
         inkscape:connector-curvature="0" />
      <path
         style="color:#000000;font-style:normal;font-variant:normal;font-weight:normal;font-stretch:normal;font-size:medium;line-height:normal;font-family:sans-serif;font-variant-ligatures:normal;font-variant-position:normal;font-variant-caps:normal;font-variant-numeric:normal;font-variant-alternates:normal;font-feature-settings:normal;text-indent:0;text-align:start;text-decoration:none;text-decoration-line:none;text-decoration-style:solid;text-decoration-color:#000000;letter-spacing:normal;word-spacing:normal;text-transform:none;writing-mode:lr-tb;direction:ltr;text-orientation:mixed;dominant-baseline:auto;baseline-shift:baseline;text-anchor:start;white-space:normal;shape-padding:0;clip-rule:nonzero;display:inline;overflow:visible;visibility:visible;opacity:1;isolation:auto;mix-blend-mode:normal;color-interpolation:sRGB;color-interpolation-filters:linearRGB;solid-color:#000000;solid-opacity:1;vector-effect:none;fill:#383c4a;fill-opacity:0.97916667;fill-rule:evenodd;stroke:none;stroke-width:0.32300001;stroke-linecap:butt;stroke-linejoin:miter;stroke-miterlimit:4;stroke-dasharray:none;stroke-dashoffset:0;stroke-opacity:1;marker:none;marker-start:none;marker-mid:none;marker-end:none;paint-order:fill markers stroke;color-rendering:auto;image-rendering:auto;shape-rendering:auto;text-rendering:auto;enable-background:accumulate"
         d="m 3,-435 3,4.99999 -2,1 1,10e-6 2,-1 -3,-4 4,2.99999 1,-2 L 8,-432 Z"
         id="path4012"
         inkscape:connector-curvature="0"
         sodipodi:nodetypes="cccccccccc" />
    </g>
  </g>
</svg>

<?xml version="1.0" encoding="UTF-8" standalone="no"?>
<svg
   xmlns:osb="http://www.openswatchbook.org/uri/2009/osb"
   xmlns:dc="http://purl.org/dc/elements/1.1/"
   xmlns:cc="http://creativecommons.org/ns#"
   xmlns:rdf="http://www.w3.org/1999/02/22-rdf-syntax-ns#"
   xmlns:svg="http://www.w3.org/2000/svg"
   xmlns="http://www.w3.org/2000/svg"
   xmlns:sodipodi="http://sodipodi.sourceforge.net/DTD/sodipodi-0.dtd"
   xmlns:inkscape="http://www.inkscape.org/namespaces/inkscape"
   height="511"
   viewBox="0 0 511 511"
   width="511"
   id="svg2"
   version="1.1"
   inkscape:version="0.92.1 r"
   sodipodi:docname="emblems.svg"
   style="enable-background:new">
  <title
     id="title4675">Template icons dark</title>
  <metadata
     id="metadata24">
    <rdf:RDF>
      <cc:Work
         rdf:about="">
        <dc:format>image/svg+xml</dc:format>
        <dc:type
           rdf:resource="http://purl.org/dc/dcmitype/StillImage" />
        <dc:title>Template icons dark</dc:title>
        <dc:date>17/05/13</dc:date>
        <dc:creator>
          <cc:Agent>
            <dc:title>wfpaisa</dc:title>
          </cc:Agent>
        </dc:creator>
        <dc:rights>
          <cc:Agent>
            <dc:title>License: GPLv3</dc:title>
          </cc:Agent>
        </dc:rights>
        <dc:language>es-en</dc:language>
        <dc:subject>
          <rdf:Bag>
            <rdf:li>plane-icon-theme</rdf:li>
          </rdf:Bag>
        </dc:subject>
        <dc:description>Template for create set icons</dc:description>
        <cc:license
           rdf:resource="https://www.gnu.org/licenses/gpl-3.0.en.html" />
      </cc:Work>
    </rdf:RDF>
  </metadata>
  <defs
     id="defs22">
    <linearGradient
       id="folder_icono_fondo-1"
       osb:paint="solid">
      <stop
         style="stop-color:#49566c;stop-opacity:0.28491619;"
         offset="0"
         id="stop8478" />
    </linearGradient>
  </defs>
  <sodipodi:namedview
     pagecolor="#383c4a"
     bordercolor="#ffffff"
     borderopacity="0.62745098"
     objecttolerance="4"
     gridtolerance="10"
     guidetolerance="4"
     inkscape:pageopacity="0"
     inkscape:pageshadow="2"
     inkscape:window-width="640"
     inkscape:window-height="480"
     id="namedview20"
     showgrid="true"
     inkscape:zoom="7.8580482"
     inkscape:cx="24.012734"
     inkscape:cy="475.11748"
     inkscape:current-layer="layer2"
     inkscape:snap-smooth-nodes="true"
     showguides="true"
     borderlayer="true"
     inkscape:showpageshadow="false"
     inkscape:guide-bbox="true"
     guidecolor="#bd4fff"
     guideopacity="0.78431373"
     inkscape:snap-nodes="true"
     inkscape:lockguides="false"
     fit-margin-top="0"
     fit-margin-left="0"
     fit-margin-right="0"
     fit-margin-bottom="0"
     guidehicolor="#ff0101"
     guidehiopacity="0.78431373"
     inkscape:snap-page="true"
     inkscape:snap-global="true">
    <inkscape:grid
       type="xygrid"
       id="grid4171"
       empspacing="17"
       dotted="false"
       originx="2.7755576e-17"
       originy="1e-05"
       spacingx="1"
       spacingy="1"
       color="#000000"
       opacity="0.09803922"
       empcolor="#ff3fd7"
       empopacity="0.25098039"
       visible="true" />
    <inkscape:grid
       type="xygrid"
       id="grid7715"
       dotted="false"
       color="#3f3fff"
       opacity="0"
       empcolor="#ff3fd7"
       empopacity="0.25098039"
       empspacing="17"
       originx="1"
       originy="1" />
  </sodipodi:namedview>
  <g
     inkscape:groupmode="layer"
     id="layer2"
     inkscape:label="Symbolic"
     transform="translate(0,463)"
     style="display:inline">
    <text
       xml:space="preserve"
       style="font-size:8.55383492px;line-height:1000%;font-family:sans-serif;letter-spacing:0px;word-spacing:0px;fill:#ffffff;fill-opacity:1;stroke:none;stroke-width:0.53461468px;stroke-linecap:butt;stroke-linejoin:miter;stroke-opacity:1"
       x="2.7790427"
       y="-451.4892"
       id="text7769"><tspan
         sodipodi:role="line"
         id="tspan7767"
         x="2.7790427"
         y="-451.4892"
         style="font-size:5.33333349px;fill:#ffffff;fill-opacity:1;stroke:none;stroke-width:0.53461468px">Emblems</tspan></text>
  </g>
  <g
     transform="translate(0,463)"
     style="display:inline"
     inkscape:label="emblem-symbolic-link_8"
     id="g4087"
     inkscape:groupmode="layer">
    <g
       inkscape:groupmode="layer"
       style="display:none"
       inkscape:label="frame"
       id="g4067">
      <rect
         style="color:#000000;clip-rule:nonzero;display:block;overflow:visible;visibility:visible;opacity:1;isolation:auto;mix-blend-mode:normal;color-interpolation:sRGB;color-interpolation-filters:linearRGB;solid-color:#000000;solid-opacity:1;vector-effect:none;fill:#000000;fill-opacity:1;fill-rule:nonzero;stroke:#ff24f7;stroke-width:0;stroke-linecap:square;stroke-linejoin:miter;stroke-miterlimit:4;stroke-dasharray:none;stroke-dashoffset:0;stroke-opacity:0.99481865;marker:none;marker-start:none;marker-mid:none;marker-end:none;paint-order:normal;color-rendering:auto;image-rendering:auto;shape-rendering:auto;text-rendering:auto;enable-background:accumulate"
         id="rect4065"
         width="8"
         height="8"
         x="1"
         y="-437"
         inkscape:label="frame_16" />
    </g>
    <g
       inkscape:label="icon"
       id="g4085"
       inkscape:groupmode="layer"
       style="display:inline">
      <path
         style="color:#000000;font-style:normal;font-variant:normal;font-weight:normal;font-stretch:normal;font-size:medium;line-height:normal;font-family:sans-serif;font-variant-ligatures:normal;font-variant-position:normal;font-variant-caps:normal;font-variant-numeric:normal;font-variant-alternates:normal;font-feature-settings:normal;text-indent:0;text-align:start;text-decoration:none;text-decoration-line:none;text-decoration-style:solid;text-decoration-color:#000000;letter-spacing:normal;word-spacing:normal;text-transform:none;writing-mode:lr-tb;direction:ltr;text-orientation:mixed;dominant-baseline:auto;baseline-shift:baseline;text-anchor:start;white-space:normal;shape-padding:0;clip-rule:nonzero;display:inline;overflow:visible;visibility:visible;opacity:1;isolation:auto;mix-blend-mode:normal;color-interpolation:sRGB;color-interpolation-filters:linearRGB;solid-color:#000000;solid-opacity:1;vector-effect:none;fill:#d0ebf8;fill-opacity:1;fill-rule:evenodd;stroke:none;stroke-width:1px;stroke-linecap:butt;stroke-linejoin:miter;stroke-miterlimit:4;stroke-dasharray:none;stroke-dashoffset:0;stroke-opacity:1;color-rendering:auto;image-rendering:auto;shape-rendering:auto;text-rendering:auto;enable-background:accumulate"
         d="m 4,-434.00001 3,4 L 5,-429 h 4 v -4 l -1,2 z"
         id="path4091"
         inkscape:connector-curvature="0"
         sodipodi:nodetypes="ccccccc" />
    </g>
  </g>
  <g
     inkscape:groupmode="layer"
     id="g4107"
     inkscape:label="emblem-readonly_8"
     style="display:inline"
     transform="translate(0,463)">
    <g
       id="g4101"
       inkscape:label="frame"
       style="display:none"
       inkscape:groupmode="layer">
      <rect
         inkscape:label="frame_8"
         y="-437"
         x="18"
         height="7.9999995"
         width="7.9999995"
         id="rect4099"
         style="color:#000000;clip-rule:nonzero;display:block;overflow:visible;visibility:visible;opacity:1;isolation:auto;mix-blend-mode:normal;color-interpolation:sRGB;color-interpolation-filters:linearRGB;solid-color:#000000;solid-opacity:1;vector-effect:none;fill:#000000;fill-opacity:1;fill-rule:nonzero;stroke:#ff24f7;stroke-width:0;stroke-linecap:square;stroke-linejoin:miter;stroke-miterlimit:4;stroke-dasharray:none;stroke-dashoffset:0;stroke-opacity:0.99481865;marker:none;marker-start:none;marker-mid:none;marker-end:none;paint-order:normal;color-rendering:auto;image-rendering:auto;shape-rendering:auto;text-rendering:auto;enable-background:accumulate" />
    </g>
    <g
       style="display:inline"
       inkscape:groupmode="layer"
       id="g4105"
       inkscape:label="icon">
      <path
         style="color:#000000;clip-rule:nonzero;display:block;overflow:visible;visibility:visible;opacity:1;isolation:auto;mix-blend-mode:normal;color-interpolation:sRGB;color-interpolation-filters:linearRGB;solid-color:#000000;solid-opacity:1;vector-effect:none;fill:#ffd1bd;fill-opacity:1;fill-rule:nonzero;stroke:none;stroke-width:0.28982982;stroke-linecap:butt;stroke-linejoin:miter;stroke-miterlimit:4;stroke-dasharray:none;stroke-dashoffset:0;stroke-opacity:1;marker:none;marker-start:none;marker-mid:none;marker-end:none;paint-order:fill markers stroke;color-rendering:auto;image-rendering:auto;shape-rendering:auto;text-rendering:auto;enable-background:accumulate"
         d="m 22,-434 v 2 h -1 v 3 l 5,-10e-6 v -3 H 25 V -434 Z m 1,1 1,-10e-6 V -432 h -1 z"
         id="rect4109"
         inkscape:connector-curvature="0"
         sodipodi:nodetypes="cccccccccccccc" />
      <path
         style="color:#000000;clip-rule:nonzero;display:block;overflow:visible;visibility:visible;opacity:1;isolation:auto;mix-blend-mode:normal;color-interpolation:sRGB;color-interpolation-filters:linearRGB;solid-color:#000000;solid-opacity:1;vector-effect:none;fill:#383c4a;fill-opacity:0.97916669;fill-rule:nonzero;stroke:none;stroke-width:0.32300001;stroke-linecap:butt;stroke-linejoin:miter;stroke-miterlimit:4;stroke-dasharray:none;stroke-dashoffset:0;stroke-opacity:1;marker:none;marker-start:none;marker-mid:none;marker-end:none;paint-order:fill markers stroke;color-rendering:auto;image-rendering:auto;shape-rendering:auto;text-rendering:auto;enable-background:accumulate"
         d="M 21 28 L 21 29 L 21 30 L 20 30 L 20 31 L 20 34 L 21 34 L 21 31 L 22 31 L 22 30 L 22 29 L 25 29 L 25 31 L 26 31 L 26 28 L 25 28 L 21 28 z M 26 31 L 26 34 L 27 34 L 27 31 L 26 31 z M 23 30 L 23 31 L 24 31 L 24 30 L 23 30 z "
         transform="translate(0,-463)"
         id="rect3996" />
      <path
         style="color:#000000;font-style:normal;font-variant:normal;font-weight:normal;font-stretch:normal;font-size:medium;line-height:normal;font-family:sans-serif;font-variant-ligatures:normal;font-variant-position:normal;font-variant-caps:normal;font-variant-numeric:normal;font-variant-alternates:normal;font-feature-settings:normal;text-indent:0;text-align:start;text-decoration:none;text-decoration-line:none;text-decoration-style:solid;text-decoration-color:#000000;letter-spacing:normal;word-spacing:normal;text-transform:none;writing-mode:lr-tb;direction:ltr;text-orientation:mixed;dominant-baseline:auto;baseline-shift:baseline;text-anchor:start;white-space:normal;shape-padding:0;clip-rule:nonzero;display:inline;overflow:visible;visibility:visible;opacity:1;isolation:auto;mix-blend-mode:normal;color-interpolation:sRGB;color-interpolation-filters:linearRGB;solid-color:#000000;solid-opacity:1;vector-effect:none;fill:#383c4a;fill-opacity:0.97916667;fill-rule:evenodd;stroke:none;stroke-width:0.32300001;stroke-linecap:butt;stroke-linejoin:miter;stroke-miterlimit:4;stroke-dasharray:none;stroke-dashoffset:0;stroke-opacity:1;color-rendering:auto;image-rendering:auto;shape-rendering:auto;text-rendering:auto;enable-background:accumulate;font-variant-east_asian:normal;marker:none;marker-start:none;marker-mid:none;marker-end:none;paint-order:fill markers stroke"
         d="m 3,-435 3,4.99999 -2,1 1,10e-6 2,-1 -3,-4 4,2.99999 1,-2 L 8,-432 Z"
         id="path4012"
         inkscape:connector-curvature="0"
         sodipodi:nodetypes="cccccccccc" />
    </g>
  </g>
</svg>
